icons/Settings Icon.svg

<svg fill="none" height="16" viewBox="0 0 16 16" width="16" xmlns="http://www.w3.org/2000/svg" xmlns:xlink="http://www.w3.org/1999/xlink"><clipPath id="a"><path d="m0 0h16v16h-16z"/></clipPath><g clip-path="url(#a)" stroke="#999" stroke-width="2"><path d="m6.99992 1.33333h2l.4462.8924c.29673.59348.98478.87846 1.61418.66863l.9466-.31551 1.4142 1.41421-.3155.94653c-.2099.62949.0751 1.31747.6686 1.61421l.8924.4462v2l-.8924.4462c-.5935.29673-.8785.9847-.6686 1.6142l.3155.9465-1.4142 1.4142-.9466-.3154c-.6294-.2099-1.31745.0751-1.61418.6686l-.4462.8924h-2l-.4462-.8924c-.29674-.5935-.98472-.8785-1.61421-.6686l-.94653.3154-1.41421-1.4142.31551-.9465c.20983-.6295-.07515-1.31747-.66863-1.6142l-.8924-.4462v-2l.8924-.4462c.59348-.29674.87846-.98472.66863-1.61421l-.31551-.94653 1.41421-1.41421.94653.31551c.62948.20983 1.31747-.07515 1.61421-.66863z"/><path d="m10 8c0 1.1046-.8954 2-2 2s-2-.8954-2-2 .8954-2 2-2 2 .8954 2 2z"/></g></svg>

<svg width="16" height="16" viewBox="0 0 16 16" fill="none" xmlns="http://www.w3.org/2000/svg">
<g clip-path="url(#clip0_81_1678)">
<path d="M6.99992 1.33333H8.99992L9.44612 2.22573C9.74285 2.81921 10.4309 3.10419 11.0603 2.89436L12.0069 2.57885L13.4211 3.99306L13.1056 4.93959C12.8957 5.56908 13.1807 6.25706 13.7742 6.5538L14.6666 7V9L13.7742 9.4462C13.1807 9.74293 12.8957 10.4309 13.1056 11.0604L13.4211 12.0069L12.0069 13.4211L11.0603 13.1057C10.4309 12.8958 9.74285 13.1808 9.44612 13.7743L8.99992 14.6667H6.99992L6.55372 13.7743C6.25698 13.1808 5.569 12.8958 4.93951 13.1057L3.99298 13.4211L2.57877 12.0069L2.89428 11.0604C3.10411 10.4309 2.81913 9.74293 2.22565 9.4462L1.33325 9V7L2.22565 6.5538C2.81913 6.25706 3.10411 5.56908 2.89428 4.93959L2.57877 3.99306L3.99298 2.57885L4.93951 2.89436C5.56899 3.10419 6.25698 2.81921 6.55372 2.22573L6.99992 1.33333Z" stroke="#999999" stroke-width="2"/>
<path d="M10 8C10 9.1046 9.1046 10 8 10C6.8954 10 6 9.1046 6 8C6 6.8954 6.8954 6 8 6C9.1046 6 10 6.8954 10 8Z" stroke="#999999" stroke-width="2"/>
</g>
<defs>
<clipPath id="clip0_81_1678">
<rect width="16" height="16" fill="white"/>
</clipPath>
</defs>
</svg>
